components/Common/Svg/svgs/laptop.svg

<svg
  width="40"
  height="40"
  viewBox="0 0 40 40"
  fill="none"
  xmlns="http://www.w3.org/2000/svg"
>
  <path
    d="M36.5395 28.9605V9.97167C36.5395 8.28146 35.1634 6.90535 33.4731 6.90535H25.9868C25.6129 6.17242 25.1118 5.50681 24.491 4.94589C23.0626 3.66701 21.148 3.06122 19.2334 3.27063C16.9748 3.51743 15.0079 4.94589 13.9982 6.90535H6.51939C4.82917 6.90535 3.45306 8.28146 3.45306 9.97167V28.9679H1V32.2885L3.81204 35.0931H36.188L39 32.2811V28.9605H36.5395ZM14.5367 9.1864C14.8733 6.74081 16.9075 4.7664 19.368 4.48968C20.9685 4.31019 22.4942 4.79632 23.6759 5.85831C24.8426 6.90535 25.5156 8.40112 25.5156 9.97167C25.5156 11.3777 24.9846 12.7164 24.0274 13.741C22.7634 15.0872 22.0081 16.7774 21.866 18.5499H18.1415C18.0069 16.7325 17.2814 15.0722 16.0624 13.8233C14.8508 12.5967 14.2974 10.9065 14.5367 9.1864ZM4.67959 9.97167C4.67959 8.95455 5.50226 8.13188 6.51191 8.13188H13.5121C13.4298 8.42355 13.3625 8.71523 13.3177 9.01438C13.026 11.1159 13.7066 13.1801 15.1724 14.6759C16.1521 15.678 16.7654 17.0616 16.9 18.5424H15.7034V19.769H24.2816V18.5424H23.085C23.2271 17.0841 23.8628 15.6855 24.9099 14.5712C26.084 13.3222 26.7347 11.6843 26.7347 9.9642C26.7347 9.33597 26.6375 8.72271 26.4729 8.1244H33.4806C34.4977 8.1244 35.3204 8.94707 35.3204 9.9642V26.5074H4.67959V9.97167ZM4.67959 27.7414H35.3204V28.9679H23.0626V30.1945H16.9299V28.9679H4.67959V27.7414ZM37.7735 31.78H37.766L35.6719 33.8741H4.32061L2.22653 31.78V30.1945H15.7109V31.421H24.2891V30.1945H37.7735V31.78Z"
    fill="black"
  ></path>
  <path
    d="M29.8047 31.4209H28.5781V32.6474H29.8047V31.4209Z"
    fill="black"
  ></path>
  <path
    d="M32.2578 31.4209H31.0312V32.6474H32.2578V31.4209Z"
    fill="black"
  ></path>
  <path
    d="M34.7109 31.4209H33.4844V32.6474H34.7109V31.4209Z"
    fill="black"
  ></path>
  <path
    d="M22.4494 21.0029H17.5507H15.7109V22.2295H17.5507V22.8427H17.5433C17.5433 23.8598 18.3659 24.6825 19.3831 24.6825H20.6096C21.6267 24.6825 22.4494 23.8598 22.4494 22.8427V22.2295H24.2892V21.0029H22.4494ZM21.2228 22.8427C21.2228 23.1793 20.9461 23.456 20.6096 23.456H19.3831C19.0465 23.456 18.7698 23.1793 18.7698 22.8427V22.2295H21.2228V22.8427Z"
    fill="black"
  ></path>
  <path
    d="M23.6792 11.1907V9.96412H23.0061C22.9238 9.57522 22.7742 9.20876 22.5573 8.88717L23.036 8.40852L22.161 7.54845L21.6823 8.0271C21.3607 7.81769 21.0017 7.66064 20.6054 7.57837V6.90527H19.3788V7.57837C18.9899 7.66064 18.6235 7.81021 18.3019 8.0271L17.8232 7.54845L16.9557 8.416L17.4343 8.89465C17.2249 9.21624 17.0679 9.57522 16.9856 9.9716H16.3125V11.1981H16.9856C17.0679 11.587 17.2249 11.946 17.4418 12.2676L16.9632 12.7463L17.8307 13.6138L18.3094 13.1352C18.6309 13.3446 18.9899 13.5016 19.3863 13.5839V14.257H20.6128V13.5839C21.0017 13.5016 21.3682 13.352 21.6898 13.1352L22.1684 13.6138L23.036 12.7463L22.5573 12.2676C22.7667 11.946 22.9238 11.587 23.0061 11.1907H23.6792ZM19.9921 12.4247C18.975 12.4247 18.1523 11.602 18.1523 10.5849C18.1523 9.56774 18.975 8.74507 19.9921 8.74507C21.0092 8.74507 21.8319 9.56774 21.8319 10.5849C21.8319 11.602 21.0092 12.4247 19.9921 12.4247Z"
    fill="black"
  ></path>
</svg>

<svg width="40" height="40" viewBox="0 0 40 40" fill="none" xmlns="http://www.w3.org/2000/svg"><path d="M36.54 28.96V9.973a3.07 3.07 0 0 0-3.067-3.067h-7.486a6.794 6.794 0 0 0-1.496-1.96 6.776 6.776 0 0 0-5.258-1.674c-2.258.246-4.225 1.675-5.235 3.634H6.52a3.07 3.07 0 0 0-3.066 3.067v18.996H1v3.32l2.812 2.805h32.376L39 32.281v-3.32h-2.46ZM14.536 9.186c.336-2.445 2.37-4.42 4.831-4.696 1.6-.18 3.126.306 4.308 1.368a5.532 5.532 0 0 1 1.84 4.114 5.506 5.506 0 0 1-1.489 3.769c-1.264 1.346-2.019 3.036-2.161 4.809h-3.724c-.135-1.817-.86-3.478-2.08-4.727a5.47 5.47 0 0 1-1.525-4.637Zm-9.857.786c0-1.017.822-1.84 1.832-1.84h7c-.082.292-.15.583-.194.882a6.713 6.713 0 0 0 1.854 5.662c.98 1.002 1.593 2.386 1.728 3.866h-1.197v1.227h8.579v-1.227h-1.197a6.772 6.772 0 0 1 1.825-3.97 6.707 6.707 0 0 0 1.825-4.608c0-.628-.098-1.241-.262-1.84h7.008c1.017 0 1.84.823 1.84 1.84v16.543H4.68V9.972Zm0 17.77h30.64v1.226H23.063v1.227H16.93v-1.227H4.68V27.74Zm33.093 4.038h-.007l-2.094 2.094H4.32L2.227 31.78v-1.585H15.71v1.226h8.578v-1.226h13.484v1.585Z" fill="#000"/><path d="M29.805 31.42h-1.227v1.227h1.227v-1.226ZM32.258 31.42H31.03v1.227h1.227v-1.226ZM34.71 31.42h-1.226v1.227h1.227v-1.226ZM22.45 21.003h-6.74v1.227h1.84v.613h-.007c0 1.017.823 1.84 1.84 1.84h1.227c1.017 0 1.84-.823 1.84-1.84v-.613h1.84v-1.227h-1.84Zm-1.227 1.84a.616.616 0 0 1-.613.613h-1.227a.616.616 0 0 1-.613-.613v-.613h2.453v.613ZM23.68 11.19V9.965h-.674a3.05 3.05 0 0 0-.449-1.077l.479-.478-.875-.86-.479.478a3.132 3.132 0 0 0-1.077-.449v-.673H19.38v.673a3.05 3.05 0 0 0-1.077.45l-.479-.48-.867.868.478.479c-.21.321-.366.68-.448 1.077h-.674v1.226h.674c.082.389.239.748.456 1.07l-.479.478.868.868.478-.479c.322.21.68.367 1.077.449v.673h1.227v-.673a3.052 3.052 0 0 0 1.077-.449l.478.479.868-.868-.479-.478c.21-.322.367-.681.45-1.077h.672Zm-3.688 1.235a1.839 1.839 0 0 1-1.84-1.84c0-1.017.823-1.84 1.84-1.84 1.017 0 1.84.823 1.84 1.84 0 1.017-.823 1.84-1.84 1.84Z" fill="#000"/></svg>
